X:225
T:Fire Down Below (d)
M:C|
L:1/8
Q:1/4=3D150
K:D
A2AA B2B2|A2AF E4|D>EF>D G2G2|F2E2 CD3|
A4 B4|A2A2 FE2D|D3E FFD2|G3A B3G|F4 E3E|D4||
